X:8014
T:Hole in the Wall
T:Abdelazer Hornpipe
R:Minuet
C:Playford 1698, after Purcell 1695
O:England
Z:Paul Hardy's Session Tunebook 2015 (see www.paulhardy.net). Creative Commons cc by-nc-sa licenced.
M:3/2
L:1/4
Q:1/2=100
K:G
%%MIDI beatstring fpp
%%MIDI gchord czf
"G"B>c B/c/d "D7"Ad|"Em"G>A G/A/B "B7"FB|"C"E>F E/F/G "G"DB|"D7"G2zF "G"G2:|
"Em"g>f e/f/g fe|"B7"^d>e d/e/f Bf|"Em"g>f e/f/g fe|"B7"fe- e^d "Em"e2|
"C"E>F E/F/G "D7"F/G/A|"G"G>A G/A/B "D7"A/B/c|"G"B>c B/c/d Dd|"D7"B2zA "G"G2|]

